img/svg/basket.svg

<svg width="49" height="43" viewBox="0 0 49 43" fill="none" xmlns="http://www.w3.org/2000/svg">
<path fill-rule="evenodd" clip-rule="evenodd" d="M34.486 35.434C37.2225 34.2822 38.3048 38.5494 35.9352 39.4041C34.5162 39.9159 33.4774 39.0694 33.173 38.116C32.686 36.5915 33.5184 35.8414 34.486 35.4341V35.434ZM11.2522 35.4189C13.8614 34.3746 15.3281 38.4116 12.7149 39.397C10.0656 40.3958 8.48529 36.5262 11.2522 35.4189V35.4189ZM30.2406 22.3135L36.3621 22.3154L35.6392 26.1605L29.8091 26.0572L30.2405 22.3136L30.2406 22.3135ZM22.2598 22.4656L28.1352 22.4603L27.6774 26.0563C26.7067 26.4837 23.6495 26.2144 22.2797 26.1768L22.2598 22.4655V22.4656ZM12.2744 26.1743C8.32579 26.1387 6.46871 26.958 5.88514 22.695L11.8701 22.6852L12.2744 26.1744V26.1743ZM20.2512 22.5466L20.2399 26.0273L14.3483 25.9865L13.9934 22.5513L20.2513 22.5467L20.2512 22.5466ZM11.2561 17.3079L11.6524 20.5882L5.49116 20.5918L4.90038 17.3904L11.2561 17.3078V17.3079ZM22.2655 17.7585C22.2655 16.8286 22.0801 16.9067 23.0073 16.8434L28.5138 16.7056C28.809 17.5675 28.4649 19.2665 28.3219 20.348L22.2609 20.4079L22.2655 17.7585ZM20.2489 17.0124L20.2528 20.3392C19.1444 20.6791 15.096 20.5507 13.6786 20.5482L13.2783 17.1362L20.2489 17.0123V17.0124ZM37.3557 16.4699L36.7026 20.1789L30.3145 20.1825L30.6851 16.6291L37.3558 16.4699H37.3557ZM29.272 10.3602L28.8247 14.6536L22.2604 14.8414L22.3394 10.7785L29.272 10.3602V10.3602ZM20.2446 10.9831L20.2474 14.8855L12.9799 15.1598L12.7152 11.3614L20.2446 10.9831ZM10.6077 11.5044L10.9039 15.213L4.59758 15.3899L3.93126 11.8866L10.6076 11.5044H10.6077ZM38.6731 9.89589L37.7656 14.4165L30.8966 14.6256L31.2986 10.3283L38.6731 9.89589V9.89589ZM34.2633 42.5599H36.0145C37.5351 41.8526 39.6529 41.5475 40.2325 38.3876C40.752 35.5559 39.1821 33.5333 37.4733 32.8127L42.6999 3.92082C44.0866 3.77112 46.4966 4.06462 47.5487 3.80752C48.4636 3.58391 49.4114 2.38586 47.6116 0.885712H40.9378C39.2466 2.32851 40.1055 4.726 39.1043 6.79388L5.2162 8.7508C3.63699 8.8002 0.920357 8.4936 0.611657 10.0629C0.406419 11.1059 2.99823 24.2584 3.30158 25.2313C4.60686 29.4167 8.44715 29.0426 11.4091 29.0425C19.2617 29.0423 27.1487 29.1156 35.0615 29.0482L34.5066 32.0765C33.1751 32.2787 22.8401 32.1426 20.5724 32.1426C16.7391 32.1426 10.1824 31.3369 8.08653 33.7502C5.39895 36.8447 7.12519 41.617 10.8294 42.3539C14.3567 43.0556 18.0672 40.4348 16.6728 35.2243L30.4441 35.2246C29.7909 37.1585 29.7608 38.4069 30.7622 40.0951C31.7806 41.812 32.2786 41.637 34.2633 42.56V42.5599Z" fill="white"/>
</svg>

<svg width="49" height="43" fill="none" xmlns="http://www.w3.org/2000/svg"><path fill-rule="evenodd" clip-rule="evenodd" d="M34.486 35.434c2.736-1.152 3.819 3.115 1.45 3.97-1.42.512-2.459-.335-2.763-1.288-.487-1.524.345-2.275 1.313-2.682zm-23.234-.015c2.61-1.044 4.076 2.993 1.463 3.978-2.65.999-4.23-2.87-1.463-3.978zm18.989-13.105l6.121.001-.723 3.845-5.83-.103.431-3.743zm-7.981.152l5.875-.006-.458 3.596c-.97.428-4.027.158-5.397.12l-.02-3.71zm-9.986 3.708c-3.948-.035-5.805.784-6.389-3.479l5.985-.01.404 3.49zm7.977-3.627l-.011 3.48-5.892-.04-.355-3.436 6.258-.004zm-8.995-5.24l.396 3.281-6.16.004L4.9 17.39l6.356-.082zm11.01.452c0-.93-.186-.852.741-.916l5.507-.137c.295.861-.05 2.56-.192 3.642l-6.061.06.005-2.65zm-2.017-.747l.004 3.327c-1.109.34-5.157.212-6.574.21l-.4-3.413 6.97-.124zm17.107-.542l-.653 3.709-6.389.004.371-3.554 6.67-.16zm-8.084-6.11l-.447 4.294-6.565.187.08-4.063 6.932-.418zm-9.027.623l.002 3.902-7.267.275-.265-3.799 7.53-.378zm-9.637.521l.296 3.709-6.306.177-.667-3.503 6.677-.383zm28.065-1.608l-.907 4.52-6.87.21.403-4.298 7.374-.432zm-4.41 32.664h1.752c1.52-.707 3.638-1.013 4.218-4.172.519-2.832-1.05-4.855-2.76-5.575L42.7 3.92c1.387-.15 3.797.144 4.849-.113.915-.224 1.862-1.422.063-2.922h-6.674c-1.691 1.443-.833 3.84-1.834 5.908L5.216 8.75C3.637 8.8.92 8.494.612 10.063c-.206 1.043 2.386 14.195 2.69 15.168 1.305 4.186 5.145 3.812 8.107 3.811 7.853 0 15.74.074 23.652.006l-.554 3.029c-1.332.202-11.667.066-13.935.066-3.833 0-10.39-.806-12.485 1.607-2.688 3.095-.962 7.867 2.742 8.604 3.528.702 7.238-1.92 5.844-7.13h13.771c-.653 1.934-.683 3.183.318 4.871 1.019 1.717 1.517 1.542 3.501 2.465z" fill="#fff"/></svg>
